src/images/home/file-download.svg

<svg height="17" viewBox="0 0 14 17" width="14" xmlns="http://www.w3.org/2000/svg"><path d="m14 6h-4v-6h-6v6h-4l7 7zm-14 9v2h14v-2z" fill="#fff" fill-rule="evenodd" transform=""/></svg>

<?xml version="1.0" encoding="UTF-8"?>
<svg width="14px" height="17px" viewBox="0 0 14 17" version="1.1" xmlns="http://www.w3.org/2000/svg" xmlns:xlink="http://www.w3.org/1999/xlink">
    <!-- Generator: Sketch 46.2 (44496) - http://www.bohemiancoding.com/sketch -->
    <title>file-download</title>
    <desc>Created with Sketch.</desc>
    <defs></defs>
    <g id="Page-1" stroke="none" stroke-width="1" fill="none" fill-rule="evenodd">
        <g id="LSH-00-Copy-65" transform="translate(-893.000000, -570.000000)" fill="#FFFFFF">
            <g id="file-download" transform="translate(893.000000, 570.000000)">
                <path d="M14,6 L10,6 L10,0 L4,0 L4,6 L0,6 L7,13 L14,6 L14,6 Z M0,15 L0,17 L14,17 L14,15 L0,15 L0,15 Z" id="Shape"></path>
            </g>
        </g>
    </g>
</svg>
